chrome/icons/action-center.svg

<svg height="16" viewBox="64 64 896 960" width="16" xmlns="http://www.w3.org/2000/svg" xmlns:xlink="http://www.w3.org/1999/xlink">
  <path d="M325,832L189.5,832C172.833,832 156.917,828.583 141.75,821.75C126.583,814.917 113.25,805.75 101.75,794.25C90.25,782.75 81.0833,769.417 74.25,754.25C67.4167,739.083 64,723.167 64,706.5L64,189.5C64,172.833 67.4167,156.917 74.25,141.75C81.0833,126.583 90.25,113.25 101.75,101.75C113.25,90.25 126.583,81.0834 141.75,74.25C156.917,67.4167 172.833,64.0001 189.5,64L834.5,64C851.167,64.0001 867.083,67.4167 882.25,74.25C897.417,81.0834 910.75,90.25 922.25,101.75C933.75,113.25 942.917,126.583 949.75,141.75C956.583,156.917 960,172.833 960,189.5L960,706.5C960,723.833 956.5,740.083 949.5,755.25C942.5,770.417 933.167,783.667 921.5,795C909.833,806.333 896.25,815.333 880.75,822C865.25,828.667 849,832 832,832L699,832L536,1013.5C529.667,1020.5 521.667,1024 512,1024C502.333,1024 494.333,1020.5 488,1013.5ZM896,704L896,192C896,183.333 894.333,175.083 891,167.25C887.667,159.417 883.083,152.583 877.25,146.75C871.417,140.917 864.583,136.333 856.75,133C848.917,129.667 840.667,128 832,128L192,128C183,128 174.667,129.667 167,133C159.333,136.333 152.583,140.917 146.75,146.75C140.917,152.583 136.333,159.333 133,167C129.667,174.667 128,183 128,192L128,704C128,713 129.667,721.417 133,729.25C136.333,737.083 140.833,743.833 146.5,749.5C152.167,755.167 158.917,759.667 166.75,763C174.583,766.333 183,768 192,768L339,768C343.667,768 348.083,768.833 352.25,770.5C356.417,772.167 360,774.833 363,778.5L512,944L661,778.5C664,774.833 667.583,772.167 671.75,770.5C675.917,768.833 680.333,768 685,768L832,768C841,768 849.333,766.333 857,763C864.667,759.667 871.417,755.083 877.25,749.25C883.083,743.417 887.667,736.667 891,729C894.333,721.333 896,713 896,704Z" fill="context-fill" fill-opacity="context-fill-opacity">
  </path>
</svg>

<svg xmlns="http://www.w3.org/2000/svg" width="16" height="16" viewBox="64 64 896 960"><path fill="context-fill" fill-opacity="context-fill-opacity" d="M325 832H189.5q-25 0-47.75-10.25t-40-27.5-27.5-40T64 706.5v-517q0-25 10.25-47.75t27.5-40 40-27.5T189.5 64h645q25 0 47.75 10.25t40 27.5 27.5 40T960 189.5v517q0 26-10.5 48.75t-28 39.75-40.75 27T832 832H699l-163 181.5q-9.5 10.5-24 10.5t-24-10.5Zm571-128V192q0-13-5-24.75t-13.75-20.5-20.5-13.75-24.75-5H192q-13.5 0-25 5t-20.25 13.75T133 167t-5 25v512q0 13.5 5 25.25t13.5 20.25 20.25 13.5 25.25 5h147q7 0 13.25 2.5t10.75 8L512 944l149-165.5q4.5-5.5 10.75-8T685 768h147q13.5 0 25-5t20.25-13.75T891 729t5-25"/></svg>
